X: 142
T:Return of Spring, The
M:2/4
L:1/8
R:polka
D:Joe McHugh &amp; Barry Carroll: The Long Finger
Z:id:hn-polka-68
K:G
d&gt;e dB|G2 GD|GB/d/ ed|c2 cB|cd cA|F2 F2|d (3B/^c/d/ ed|B2 Bc|
d&gt;e dB|G2 GD|GB/d/ ed|c2 cB|Af f/e/f|Ae e/d/e|dB cA|G2 Gd||
|:g&gt;g ge|f&gt;f fd|ed Bc|d2 dB|G (3B/^c/d/ ed|1 A2 A2|d (3B/^c/d/ ed|
B2 Bd:|2 A&gt;A Ag|fd ef|g2 ge||
|:dd g&gt;f|ee a&gt;g|fd ef|ed Bc|dd g&gt;f|ee a&gt;g|fd ef|g2 ge:|
<end>
<start>
